X:358
%%etbk:tnset id:168,pos:2,rep:3x,ant:
%%etbk:skill ?
%%etbk:pldat 2013-10-20T15:04,2013-09-02T18:29,2013-05-18T13:41,2013-05-14T18:09,2013-05-07T18:54,2013-05-02T18:41
T: Happy to Meet and Sorry to Part
Z: Piano Box Version by Martin Fleischmann
H: Created 2013-02-19 /  Last Modified 2013-05-18
R:jig
M:6/8
L:1/8
K: Gmaj
|: "G"!3!e!2!d!1!B !3!BAB | !1!G!2!E!3!F !1!G2!2!A | "em"!3!B!4!dd !3!B!5!ee | !3!B!4!d!3!d !3!d!5!g!4!e|
"G"!3!d!2!B!1!G !2!A!1!G!2!E | !1!DE!3!F !1!G2!2!A | "em"!3!B!1!G!5!e !4!d!3!B!2!A|1 "D"!2!A!1!G!2!F "G"!1!G2!5!g:|2 "D"!2!A!1!G!2!F "G"!1!G!2!B!3!d||
|: "G"!5!g2g !4!fe!2!d | "D"!1!B!3!d!2!^c !1!de!3!f | "G"!4!g!3!g!4!g !3!fe!1!d | "em"!1!B!2!e!1!d !2!e2f|
"G"!4!gGg !4!gfe | !1!d!2!B!1!d !4!gfe | !1!d!3!B!1!G "D"!2!A!1!G!2!E |1 !1!DE!3!F "G"!1!G!2!B!3!d:|2 !1!DE!3!F "G"!1!G2!5!g||
